dreiging_type/111.svg

<?xml version="1.0" encoding="UTF-8" standalone="no"?>
<!-- Generator: Adobe Illustrator 24.1.0, SVG Export Plug-In . SVG Version: 6.00 Build 0)  -->

<svg
   xmlns:dc="http://purl.org/dc/elements/1.1/"
   xmlns:cc="http://creativecommons.org/ns#"
   xmlns:rdf="http://www.w3.org/1999/02/22-rdf-syntax-ns#"
   xmlns:svg="http://www.w3.org/2000/svg"
   xmlns="http://www.w3.org/2000/svg"
   xmlns:sodipodi="http://sodipodi.sourceforge.net/DTD/sodipodi-0.dtd"
   xmlns:inkscape="http://www.inkscape.org/namespaces/inkscape"
   version="1.1"
   id="svg8"
   inkscape:export-filename="/media/juhele/data_2TB/_GRAFIKA/GHS hazard symbols/GHS06_toxic_substances.png"
   inkscape:export-xdpi="99.027519"
   inkscape:export-ydpi="99.027519"
   inkscape:version="0.92.5 (2060ec1f9f, 2020-04-08)"
   sodipodi:docname="111.svg"
   x="0px"
   y="0px"
   viewBox="0 0 125 125"
   xml:space="preserve"
   width="125"
   height="125"><metadata
   id="metadata1416"><rdf:RDF><cc:Work
       rdf:about=""><dc:format>image/svg+xml</dc:format><dc:type
         rdf:resource="http://purl.org/dc/dcmitype/StillImage" /><dc:title></dc:title></cc:Work></rdf:RDF></metadata><defs
   id="defs1414" /><sodipodi:namedview
   pagecolor="#ffffff"
   bordercolor="#666666"
   borderopacity="1"
   objecttolerance="10"
   gridtolerance="10"
   guidetolerance="10"
   inkscape:pageopacity="0"
   inkscape:pageshadow="2"
   inkscape:window-width="1920"
   inkscape:window-height="1017"
   id="namedview1412"
   showgrid="false"
   inkscape:zoom="1.0934881"
   inkscape:cx="387.79999"
   inkscape:cy="387.75"
   inkscape:window-x="-8"
   inkscape:window-y="-8"
   inkscape:window-maximized="1"
   inkscape:current-layer="svg8" />
<style
   type="text/css"
   id="style1393">
	.st0{fill:#FFEB1D;}
</style>

<g
   id="g1426"
   transform="matrix(0.08406927,0,0,0.08406927,29.927361,33.508712)"><g
     id="g1399">
	<polygon
   id="polygon1395"
   points="387,36.4 746.6,657.8 28.2,657.8 "
   class="st0"
   style="fill:#ffeb1d" />
	<path
   id="path1397"
   d="m 411.7,41.6 v 0 0 M 387,84.4 705,633.8 H 69.8 L 387,84.4 m 0,-76.5 c -6.6,0 -13.1,3.2 -16.9,9.7 L 3.5,652.6 c -7.5,13 1.9,29.2 16.9,29.2 h 734.1 c 15,0 24.4,-16.2 16.9,-29.2 L 404,17.6 C 400.1,11.1 393.5,7.9 387,7.9 Z"
   inkscape:connector-curvature="0" />
</g><g
     id="g1409">
	<circle
   id="ellipse1401"
   cy="439.39999"
   cx="387.39999"
   transform="matrix(0.7071,-0.7071,0.7071,0.7071,-197.2682,402.6445)"
   r="29.5" />
	<path
   id="path1403"
   d="m 365,401.3 -49.4,-84 c -41.8,24.6 -69.8,70.1 -69.8,122.1 h 97.4 c 0,-16.2 8.7,-30.4 21.8,-38.1 z"
   inkscape:connector-curvature="0" />
	<path
   id="path1405"
   d="M 431.6,439.3 529.1,439 C 528.9,390.5 503.8,343.4 459,317.1 l -49.2,84.1 c 14,8.3 21.8,23 21.8,38.1 z"
   inkscape:connector-curvature="0" />
	<path
   id="path1407"
   d="m 365.5,477.9 -48.3,84.6 c 42.1,24 95.5,25.8 140.6,-0.1 l -48.4,-84.6 c -14.1,8.1 -30.8,7.6 -43.9,0.1 z"
   inkscape:connector-curvature="0" />
</g></g>
</svg>

<?xml version="1.0" encoding="utf-8"?>
<!-- Generator: Adobe Illustrator 24.1.0, SVG Export Plug-In . SVG Version: 6.00 Build 0)  -->
<svg version="1.1"
	 id="svg8" inkscape:export-filename="/media/juhele/data_2TB/_GRAFIKA/GHS hazard symbols/GHS06_toxic_substances.png" inkscape:export-xdpi="99.027519" inkscape:export-ydpi="99.027519" inkscape:version="0.92.3 (unknown)" sodipodi:docname="GHS06_toxic_substances.svg" xmlns:cc="http://creativecommons.org/ns#" xmlns:dc="http://purl.org/dc/elements/1.1/" xmlns:inkscape="http://www.inkscape.org/namespaces/inkscape" xmlns:rdf="http://www.w3.org/1999/02/22-rdf-syntax-ns#" xmlns:sodipodi="http://sodipodi.sourceforge.net/DTD/sodipodi-0.dtd" xmlns:svg="http://www.w3.org/2000/svg"
	 xmlns="http://www.w3.org/2000/svg" xmlns:xlink="http://www.w3.org/1999/xlink" x="0px" y="0px" viewBox="0 0 775.6 775.5"
	 style="enable-background:new 0 0 775.6 775.5;" xml:space="preserve">
<style type="text/css">
	.st0{fill:#FFEB1D;}
</style>
<g>
	<polygon class="st0" points="28.2,657.8 387,36.4 746.6,657.8 	"/>
	<path d="M411.7,41.6L411.7,41.6L411.7,41.6 M387,84.4l318,549.4H69.8L387,84.4 M387,7.9c-6.6,0-13.1,3.2-16.9,9.7L3.5,652.6
		c-7.5,13,1.9,29.2,16.9,29.2h734.1c15,0,24.4-16.2,16.9-29.2L404,17.6C400.1,11.1,393.5,7.9,387,7.9L387,7.9z"/>
</g>
<g>
	<ellipse transform="matrix(0.7071 -0.7071 0.7071 0.7071 -197.2682 402.6445)" cx="387.4" cy="439.4" rx="29.5" ry="29.5"/>
	<path d="M365,401.3l-49.4-84c-41.8,24.6-69.8,70.1-69.8,122.1h97.4C343.2,423.2,351.9,409,365,401.3z"/>
	<path d="M431.6,439.3l97.5-0.3c-0.2-48.5-25.3-95.6-70.1-121.9l-49.2,84.1C423.8,409.5,431.6,424.2,431.6,439.3z"/>
	<path d="M365.5,477.9l-48.3,84.6c42.1,24,95.5,25.8,140.6-0.1l-48.4-84.6C395.3,485.9,378.6,485.4,365.5,477.9z"/>
</g>
</svg>
